Papirus/64x64/mimetypes/application-mbox.svg

<?xml version="1.0" encoding="UTF-8" standalone="no"?>
<svg
   id="_图层_1"
   data-name="图层_1"
   version="1.1"
   viewBox="0 0 128 128"
   width="64"
   height="64"
   sodipodi:docname="application-mbox.svg"
   xml:space="preserve"
   inkscape:version="1.4 (e7c3feb100, 2024-10-09)"
   xmlns:inkscape="http://www.inkscape.org/namespaces/inkscape"
   xmlns:sodipodi="http://sodipodi.sourceforge.net/DTD/sodipodi-0.dtd"
   xmlns="http://www.w3.org/2000/svg"
   xmlns:svg="http://www.w3.org/2000/svg"><sodipodi:namedview
     id="namedview3"
     pagecolor="#505050"
     bordercolor="#eeeeee"
     borderopacity="1"
     inkscape:showpageshadow="0"
     inkscape:pageopacity="0"
     inkscape:pagecheckerboard="0"
     inkscape:deskcolor="#505050"
     inkscape:zoom="10.6875"
     inkscape:cx="32.093567"
     inkscape:cy="32"
     inkscape:window-width="1920"
     inkscape:window-height="939"
     inkscape:window-x="0"
     inkscape:window-y="34"
     inkscape:window-maximized="1"
     inkscape:current-layer="_图层_1" /><!-- Generator: Adobe Illustrator 29.0.1, SVG Export Plug-In . SVG Version: 2.1.0 Build 192)  --><defs
     id="defs1"><style
       id="style1">
      .st0 {
        fill: #0071e9;
      }

      .st1 {
        fill: #fff;
      }

      .st2 {
        fill: #5aaaff;
        isolation: isolate;
        opacity: .5;
      }
    </style><style
       id="style1-6">
      .st0 {
        fill: #9c27b0;
      }

      .st1 {
        fill: #999;
      }

      .st2, .st3 {
        isolation: isolate;
        opacity: .2;
      }

      .st4 {
        display: none;
      }

      .st5 {
        fill: #f4f4f4;
      }

      .st3 {
        fill: #fff;
      }

      .st6 {
        fill: #e4e4e4;
      }

      .st7 {
        fill: #fefdfe;
      }

      .st8 {
        fill: url(#_未命名的渐变_2);
      }
    </style><linearGradient
       id="_未命名的渐变_2"
       data-name="未命名的渐变 2"
       x1="1016.8"
       y1="-1278.7"
       x2="895.4"
       y2="-1068.3"
       gradientTransform="matrix(0.3,0,0,-0.3,-274,-343.5)"
       gradientUnits="userSpaceOnUse"><stop
         offset="0"
         stop-color="#ff5c41"
         id="stop1" /><stop
         offset="1"
         stop-color="#fe177d"
         id="stop2" /></linearGradient></defs><path
     class="st0"
     d="M18.2,0c-5.6,0-10.2,4.6-10.2,10.2v107.6c0,5.6,4.6,10.2,10.2,10.2h91.6c5.6,0,10.2-4.6,10.2-10.2V40.6L82.2,0H18.2Z"
     id="path1"
     style="fill:#f2f2f2;fill-opacity:1" /><path
     class="st2"
     d="M 82.761404,3.1812865 V 32.381287 c 0,3.2 2.2,11.6 12.2,11.6 H 120.5614 Z"
     id="path2"
     style="opacity:0.5;fill:#b3b3b3;fill-opacity:1" /><path
     class="st2"
     d="M 82.491223,0.21052635 V 29.410527 c 0,3.2 2.2,11.6 12.2,11.6 h 25.599997 z"
     id="path2-5"
     style="opacity:1;isolation:isolate;fill:#ececec;fill-opacity:1" /><g
     id="g1"
     transform="matrix(1.6087188,0,0,1.4188981,8.2169061,35.008618)"><rect
       style="opacity:0.2"
       width="10"
       height="29.4"
       x="28"
       y="31.6"
       rx="1.25"
       ry="1.4"
       id="rect1" /><rect
       style="fill:#b0b0b0"
       width="10"
       height="29.4"
       x="28"
       y="30.6"
       rx="1.25"
       ry="1.4"
       id="rect2" /><path
       style="opacity:0.2"
       d="m 18.25,13.000004 a 8.25,8.4 0 0 0 -8.25,8.4 v 16.8 c 0,1.5512 1.2265,2.8 2.75,2.8 h 38.5 c 1.5235,0 2.75,-1.2488 2.75,-2.8 v -16.8 a 8.25,8.4 0 0 0 -8.25,-8.4 z"
       id="path2-7" /><path
       style="fill:#3f51b5"
       d="m 18.25,12.000002 a 8.25,8.4 0 0 0 -8.25,8.4 v 16.8 c 0,1.5512 1.2265,2.8 2.75,2.8 h 38.5 c 1.5235,0 2.75,-1.2488 2.75,-2.8 v -16.8 a 8.25,8.4 0 0 0 -8.25,-8.4 z"
       id="path3" /><path
       style="opacity:0.3;fill:#ffffff"
       d="M 18.042969,12.003908 A 8.25,8.4 0 0 0 10,20.39844 v 16.80078 c 0,1.5512 1.2265,2.800782 2.75,2.800782 H 26 V 20.39844 c 0,-4.623772 -3.559012,-8.369646 -7.957031,-8.394532 z"
       id="path4" /><path
       style="opacity:0.2"
       d="m 39,5.0000038 a 3.0003,3.0003 0 0 0 -3,3 V 24.000004 a 3,3 0 0 0 3,3 3,3 0 0 0 3,-3 v -13 h 3 a 3,3 0 0 0 3,-3.0000002 3,3 0 0 0 -3,-3 z"
       id="path5" /><path
       style="opacity:0.1;fill:#ffffff"
       d="m 18.25,12 c -0.06642,4.85e-4 -0.132831,0.0018 -0.199219,0.0039 1.327883,0.0089 2.563764,0.378181 3.65625,0.996094 H 45.75 c 4.55575,0 8.249152,3.759856 8.25,8.398438 v -1 C 53.999152,15.759856 50.30575,12 45.75,12 Z"
       id="path6" /><path
       style="fill:none;stroke:#f3504c;stroke-width:6;stroke-linecap:round;stroke-linejoin:round"
       d="M 39,23.000002 V 7.0000019 h 6"
       id="path7" /><rect
       style="opacity:0.3"
       width="12"
       height="3"
       x="12"
       y="19"
       rx="0.75"
       ry="0.75"
       id="rect7" /><path
       style="opacity:0.2;fill:#ffffff"
       d="M 39,4 A 3.0003,3.0003 0 0 0 36,7 V 7.9492188 A 3.0003,3.0003 0 0 1 39,5 h 6 A 3,3 0 0 1 47.957031,7.4980469 3,3 0 0 0 48,7 3,3 0 0 0 45,4 Z"
       id="path8" /><path
       style="opacity:0.2;fill:#ffffff"
       d="M 18.042969,12.003906 A 8.25,8.4 0 0 0 10,20.398438 v 0.99414 a 8.25,8.4 0 0 1 8.042969,-8.388672 C 22.440988,13.028792 26,16.774665 26,21.398438 v -1 c 0,-4.623773 -3.559012,-8.369646 -7.957031,-8.394532 z"
       id="path9" /></g></svg>

<svg xmlns="http://www.w3.org/2000/svg" width="64" height="64" version="1.1">
 <rect style="opacity:0.2" width="10" height="29.4" x="28" y="31.6" rx="1.25" ry="1.4"/>
 <rect style="fill:#b0b0b0" width="10" height="29.4" x="28" y="30.6" rx="1.25" ry="1.4"/>
 <path style="opacity:0.2" d="m 18.25,13.000004 a 8.25,8.4 0 0 0 -8.25,8.4 v 16.8 c 0,1.5512 1.2265,2.8 2.75,2.8 h 38.5 c 1.5235,0 2.75,-1.2488 2.75,-2.8 v -16.8 a 8.25,8.4 0 0 0 -8.25,-8.4 z"/>
 <path style="fill:#3f51b5" d="m 18.25,12.000002 a 8.25,8.4 0 0 0 -8.25,8.4 v 16.8 c 0,1.5512 1.2265,2.8 2.75,2.8 h 38.5 c 1.5235,0 2.75,-1.2488 2.75,-2.8 v -16.8 a 8.25,8.4 0 0 0 -8.25,-8.4 z"/>
 <path style="opacity:0.3;fill:#ffffff" d="M 18.042969,12.003908 A 8.25,8.4 0 0 0 10,20.39844 v 16.80078 c 0,1.5512 1.2265,2.800782 2.75,2.800782 H 26 V 20.39844 c 0,-4.623772 -3.559012,-8.369646 -7.957031,-8.394532 z"/>
 <path style="opacity:0.2" d="m 39,5.0000038 a 3.0003,3.0003 0 0 0 -3,3 V 24.000004 a 3,3 0 0 0 3,3 3,3 0 0 0 3,-3 v -13 h 3 a 3,3 0 0 0 3,-3.0000002 3,3 0 0 0 -3,-3 z"/>
 <path style="opacity:0.1;fill:#ffffff" d="M 18.25 12 C 18.18358 12.000485 18.117169 12.001806 18.050781 12.003906 C 19.378664 12.012772 20.614545 12.382087 21.707031 13 L 45.75 13 C 50.30575 13 53.999152 16.759856 54 21.398438 L 54 20.398438 C 53.999152 15.759856 50.30575 12 45.75 12 L 18.25 12 z"/>
 <path style="fill:none;stroke:#f3504c;stroke-width:6;stroke-linecap:round;stroke-linejoin:round" d="M 39,23.000002 V 7.0000019 h 6"/>
 <rect style="opacity:0.3" width="12" height="3" x="12" y="19" rx=".75" ry=".75"/>
 <path style="opacity:0.2;fill:#ffffff" d="M 39 4 A 3.0003 3.0003 0 0 0 36 7 L 36 7.9492188 A 3.0003 3.0003 0 0 1 39 5 L 45 5 A 3 3 0 0 1 47.957031 7.4980469 A 3 3 0 0 0 48 7 A 3 3 0 0 0 45 4 L 39 4 z"/>
 <path style="opacity:0.2;fill:#ffffff" d="M 18.042969 12.003906 A 8.25 8.4 0 0 0 10 20.398438 L 10 21.392578 A 8.25 8.4 0 0 1 18.042969 13.003906 C 22.440988 13.028792 26 16.774665 26 21.398438 L 26 20.398438 C 26 15.774665 22.440988 12.028792 18.042969 12.003906 z"/>
</svg>
